X:163
T:Now for it. JJo8.163
%%VWML:JohnsonVol8-2184-p82-0
F:http://www.vwml.org/record/JohnsonVol8/2184/p82
Z:Transcribed by Simon Furey and Lewis Jones
Z:vmp.Simon Wilson 2013 www.village-music-project.org.uk
Z:Dance added by John Chambers 2017
M:2/4
L:1/8
%Q:1/4=100
K:D
|: G |\
FA2g | fd2G | FA2d | cE2G |\
FA2g | fd2f | edcB | A3 :|
|: A |\
BG2(e/f/) | gB2G | AF2(d/e/) | fA2G/F/ |\
((3GAB) ((3ABc) | ((3Bcd) ((3efg) | fdec | d2D :|
W: Hands across quite round .| same back again
W:..| foot across and turn ..| lead thro' ye Bottom
W:and cast up one Cu. .| 4 hands round at
W:Bottom ..| lead thro' the Top and cast off .|
W:foot it to your Partner and turn :|
W:
T:Scaramouch. JJo8.164
B:J.Johnson Choice Collection Vol 8 1758
Z:vmp.Simon Wilson 2013 www.village-music-project.org.uk
Z:Dance added by John Chambers 2017
M:C
L:1/8
%Q:1/4=100
K:D
|:\
(D/E/F/G/) A>D B>DA>D | (F/G/A) (B/c/d)B2E2 |\
(D/E/F/G/) A>D B>DA>D | (B/c/d) (e/f/g)f2d2 :|
|:\
fdeA fdeA | (F/G/A) (B/c/d)B2E>g |\
fdeA fdeA | (B/c/d) (e/f/g)f2d2 :|
W: Cast off two Cu. .| and up again ..|
W:cross over two Cu. .| Lead up to the Top
W:and cast off ..| foot it contrary Corners
W:and turn ..| hey contrary sides and
W:turn your Partner half round ..|
W:
